source/images/icons/icon-editorial/311-mobile.svg

<?xml version="1.0" encoding="UTF-8"?>
<svg width="80px" height="80px" viewBox="0 0 80 80" version="1.1" xmlns="http://www.w3.org/2000/svg" xmlns:xlink="http://www.w3.org/1999/xlink">
    <!-- Generator: Sketch 55.2 (78181) - https://sketchapp.com -->
    <title>Illustrative Icons/311 mobile</title>
    <desc>Created with Sketch.</desc>
    <g id="Illustrative-Icons/311-mobile" stroke="none" stroke-width="1" fill="none" fill-rule="evenodd">
        <path d="M41.1833334,37.4666667 C41.8166667,38.1 41.8166667,39.1333334 41.1666667,39.7666667 C40.5166667,40.4 39.5,40.4 38.8666667,39.7666667 C38.2333334,39.1333334 38.2333334,38.1 38.8833334,37.4666667 C39.5333334,36.8333334 40.5666667,36.8333334 41.1833334,37.4666667 Z M41.35,59.8666667 C41.9833334,59.2333334 42,58.2000001 41.3666667,57.5666667 C40.7333334,56.9333334 39.7,56.9333334 39.0666667,57.5666667 C38.4333334,58.2000001 38.4166667,59.2333334 39.05,59.8666667 C39.6833334,60.5000001 40.7,60.5166667 41.35,59.8666667 Z M41.6666667,18.6666667 C41.6666667,17.75 40.9166667,17 40,17 C39.0833334,17 38.3333334,17.75 38.3333334,18.6666667 L38.3333334,33.6666667 C38.3333334,34.5833334 39.0833334,35.3333334 40,35.3333334 C40.9166667,35.3333334 41.6666667,34.5833334 41.6666667,33.6666667 L41.6666667,18.6666667 Z M63.3333334,65.1500001 C63.3666667,65.4166667 63.3333334,65.6833334 63.2333334,65.9500001 C63.1166667,66.2333334 62.9333334,66.4666667 62.7166667,66.6500001 L56.1666667,73.0333334 C55.8500001,73.3500001 55.4166667,73.5 55,73.5 C54.5666667,73.5 54.1333334,73.3333334 53.8000001,73 C53.1500001,72.3333334 53.1666667,71.2833334 53.8333334,70.6500001 L60,64.6333334 L60.0333334,41.0666667 C60.0333334,39.9333334 58.7000001,38.6666667 56.7666667,38.6666667 C54.9666667,38.6666667 53.5,39.8166667 53.5,41.2166667 L53.3333334,63.6833334 C53.3333334,64.6000001 52.5833334,65.3333334 51.6666667,65.3333334 C51.6666667,65.3333334 51.6500001,65.3333334 51.6500001,65.3333334 C51.6333334,65.3333334 51.6166667,65.3333334 51.6000001,65.3333334 C51.5833334,65.3333334 51.5666667,65.3333334 51.5333334,65.3333334 L30,65.3333334 L30,72 C30,72.9166667 29.25,73.6666668 28.3333334,73.6666668 C27.4166667,73.6666668 26.6666667,72.9166667 26.6666667,72 L26.6666667,65.3333334 C22.6,65.2500001 20.1833333,62.7833334 20.1666667,58.6666667 L20.15,55.3333334 L16.3833333,55.3333334 C12.8666667,55.3333334 10,52.4166667 10,48.8333334 C10,46.85 10.8333333,45.05 12.1333333,43.7833334 C10.8333333,42.5833334 10,40.8166667 10,38.8333334 C10,36.8 10.85,34.9333334 12.15,33.6666667 C10.85,32.4 10,30.5333334 10,28.5 C10,24.9166667 12.7166667,22 16.0666667,22 L20.05,22 L20.0166667,13.6666667 C20.0333333,9.5 22.5166667,7 26.6833334,7 L53.3500001,7 C57.5166667,7 60,9.48333334 60.0166667,13.6666667 L60.0500001,27.1833334 C60.0500001,28.1 59.3166667,28.85 58.3833334,28.85 C58.3833334,28.85 58.3833334,28.85 58.3833334,28.85 C57.4666667,28.85 56.7166667,28.1 56.7166667,27.1833334 L56.6666667,13.6666667 C56.6666667,11.3333333 55.6666667,10.3333333 53.3333334,10.3333333 L26.6666667,10.3333333 C24.3333334,10.3333333 23.3333333,11.3333333 23.3333333,13.6666667 L23.4833334,52 L50.1000001,52 L50.1833334,41.2 C50.1833334,37.9666667 53.1500001,35.3333334 56.7833334,35.3333334 C60.4166667,35.3333334 63.3833334,37.9 63.3833334,41.0666667 L63.3333334,65.1500001 Z M16.05,32 L20.0666667,32 L20.05,25.3333334 L16.05,25.3333334 C14.55,25.3333334 13.3166667,26.75 13.3166667,28.5 C13.3166667,30.3333334 14.6166667,32 16.05,32 Z M13.3166667,38.8333334 C13.3166667,40.5833334 14.5333333,42 16.05,42 L20.1,42 L20.0833333,35.3333334 L16.05,35.3333334 C14.6166667,35.3333334 13.3166667,37 13.3166667,38.8333334 Z M20.1333333,52.0000001 L20.1166667,45.3333334 L16.3833333,45.3333334 C14.7833333,45.3333334 13.3333333,47.0000001 13.3333333,48.8333334 C13.3333333,50.5833334 14.7,52.0000001 16.3833333,52.0000001 L20.1333333,52.0000001 Z M26.8333334,62.0000001 L50,62.0000001 L50.0500001,55.3333334 L23.4833334,55.3333334 L23.5,58.6666667 C23.5,61.0000001 24.5,62.0000001 26.8333334,62.0000001 Z" id="Shape-color" fill="#ADB5BD"></path>
    </g>
</svg>

<svg width="80" height="80">
    <title>
        Illustrative Icons/311 mobile
    </title>
    <path d="M41.183 37.467a1.615 1.615 0 0 1-.016 2.3 1.63 1.63 0 0 1-2.3 0 1.615 1.615 0 0 1 .016-2.3c.65-.634 1.684-.634 2.3 0zm.167 22.4c.633-.634.65-1.667.017-2.3a1.63 1.63 0 0 0-2.3 0c-.634.633-.65 1.666-.017 2.3.633.633 1.65.65 2.3 0zm.317-41.2c0-.917-.75-1.667-1.667-1.667s-1.667.75-1.667 1.667v15c0 .916.75 1.666 1.667 1.666s1.667-.75 1.667-1.666v-15zM63.333 65.15c.034.267 0 .533-.1.8a1.83 1.83 0 0 1-.516.7l-6.55 6.383c-.317.317-.75.467-1.167.467-.433 0-.867-.167-1.2-.5a1.645 1.645 0 0 1 .033-2.35L60 64.633l.033-23.566c0-1.134-1.333-2.4-3.266-2.4-1.8 0-3.267 1.15-3.267 2.55l-.167 22.466c0 .917-.75 1.65-1.666 1.65H30V72c0 .917-.75 1.667-1.667 1.667-.916 0-1.666-.75-1.666-1.667v-6.667c-4.067-.083-6.484-2.55-6.5-6.666l-.017-3.334h-3.767c-3.516 0-6.383-2.916-6.383-6.5a7.06 7.06 0 0 1 2.133-5.05c-1.3-1.2-2.133-2.966-2.133-4.95 0-2.033.85-3.9 2.15-5.166C10.85 32.4 10 30.533 10 28.5c0-3.583 2.717-6.5 6.067-6.5h3.983l-.033-8.333C20.033 9.5 22.517 7 26.683 7H53.35c4.167 0 6.65 2.483 6.667 6.667l.033 13.516a1.66 1.66 0 0 1-1.667 1.667c-.916 0-1.666-.75-1.666-1.667l-.05-13.516c0-2.334-1-3.334-3.334-3.334H26.667c-2.334 0-3.334 1-3.334 3.334L23.483 52H50.1l.083-10.8c0-3.233 2.967-5.867 6.6-5.867 3.634 0 6.6 2.567 6.6 5.734l-.05 24.083zM16.05 32h4.017l-.017-6.667h-4c-1.5 0-2.733 1.417-2.733 3.167 0 1.833 1.3 3.5 2.733 3.5zm-2.733 6.833c0 1.75 1.216 3.167 2.733 3.167h4.05l-.017-6.667H16.05c-1.433 0-2.733 1.667-2.733 3.5zM20.133 52l-.016-6.667h-3.734c-1.6 0-3.05 1.667-3.05 3.5 0 1.75 1.367 3.167 3.05 3.167h3.75zm6.7 10H50l.05-6.667H23.483l.017 3.334C23.5 61 24.5 62 26.833 62z" fill="#ADB5BD" fill-rule="evenodd"/>
</svg>
